X: 731
M: C
L: 1/8
K: F
V: 1
|:\
|:\
(f/g/a) fc d2-df | cfAf cfAf |\
(a/g/f/e/) fc d2-df | cAfd TcAGA :|
V: 2 clef=bass middle=d
|:\
f2f2 f2f2 | F2F2 F2F2 |\
f2f2 f2f2 | f2f2 g2g2 :|
|:\
f2f2 f2f2 | F2F2 F2F2 |\
f2f2 f2f2 | f2f2 g2g2 :|

